X:6
T:Sigh of Relief
T:Summer Memories
C:Armand Aromin
M:4/4
L:1/8
H:3/21/04
K:D
BcdB AFDF | AGFG ADBD | cDdD edcB | AGBd fagf |
eAfA gAaA | bagf gdBG | ADEF GBdB | GBdB FAdA |
FAdA EAcA | EAcA FAdA | FAdA BGBG | AFAF GEGE |
K:G
DB,=CA, B,A,G,A, |
M:6/8
G,B,D G,B,D | CEG CEG | G,B,D G,B,D | EDB, A,G,A, |
G,BLma00o,D G,B,D | CEG CEG | FGc FGc | GF G3 |]
1 comment|post a comment
